X: 11310
T: Eagle's Whistle, The
R: waltz
M: 3/4
K: Dmajor
|:F2 A>FED|F2 A>FED|E2 E>FED|E2 E>FED|
F2 A>FED|F2 A>FED|D2 D>FEF|D2 D>FED:|
|:B2 ABDA|B2 A>FED|E2 E>FED|E2 E>FED|
B2 ABDA|B2 A>FEF|D2 D>FEF|D2 D>FED:|

